libs/ui/packages/crypto-icons/src/svg/STQ.svg

<svg width="24" height="24" viewBox="0 0 24 24" fill="none">
<path d="M4.61481 6.08914C5.41806 6.08914 6.24831 6.03514 7.05231 6.10714C7.40931 6.50839 7.48956 7.07089 7.76631 7.53514C11.3738 7.55314 14.9986 7.53514 18.6061 7.53514C18.8738 7.55314 19.2038 7.56214 19.3381 7.82989C19.4986 8.12464 19.3831 8.47264 19.2308 8.74039C18.4988 9.98164 17.8021 11.2409 17.0881 12.4904C16.8203 12.9374 16.6411 13.4369 16.2398 13.7856C15.9098 14.0624 15.4538 14.0796 15.0346 14.0796H10.0336C9.76581 14.0796 9.48006 14.0534 9.31956 13.8389C8.80206 13.2584 8.52456 12.5174 8.18556 11.8386C7.59849 10.6633 7.02396 9.48173 6.46206 8.29414C6.34581 8.02639 6.20331 7.78564 6.06906 7.53514C5.59656 7.53514 5.12256 7.53514 4.65906 7.51714C4.56906 7.04464 4.56906 6.56239 4.61406 6.08914H4.61481ZM10.2488 15.0441C10.6121 14.9578 10.9899 14.9517 11.3558 15.0261C11.7661 15.1161 12.1238 15.4281 12.2221 15.8391C12.3286 16.3116 12.3286 16.8216 12.1411 17.2761C11.9626 17.6871 11.5163 17.8836 11.0971 17.9196C10.6148 17.9549 10.0613 17.9196 9.70356 17.5619C9.32031 17.1336 9.32031 16.5089 9.40056 15.9726C9.45381 15.5264 9.81081 15.1424 10.2481 15.0441H10.2488ZM14.7128 15.0441C15.1591 14.9466 15.6413 14.9549 16.0703 15.1154C16.4806 15.2856 16.6951 15.7319 16.7303 16.1511C16.7843 16.6424 16.7303 17.2049 16.3733 17.5799C16.0433 17.8926 15.5611 17.9369 15.1238 17.9279C14.6948 17.9106 14.2313 17.7494 14.0078 17.3481C13.7948 16.913 13.7379 16.4178 13.8466 15.9456C13.9366 15.5084 14.2756 15.1431 14.7128 15.0441Z" fill="#2DC4E7"/>
</svg>

<svg width="24" height="24" viewBox="0 0 24 24" fill="none"><path fill="#2dc4e7" d="M4.615 6.09c.803 0 1.633-.055 2.437.017.357.401.438.964.714 1.428 3.608.018 7.233 0 10.84 0 .268.018.598.027.732.295.16.295.045.643-.107.91-.732 1.242-1.429 2.5-2.143 3.75-.268.447-.447.947-.848 1.296-.33.276-.786.294-1.205.294h-5.001c-.268 0-.554-.027-.714-.241-.518-.58-.795-1.322-1.134-2a185 185 0 0 1-1.724-3.545c-.116-.268-.259-.508-.393-.759-.472 0-.946 0-1.41-.018a5 5 0 0 1-.045-1.428m5.634 8.954a2.6 2.6 0 0 1 1.107-.018c.41.09.768.402.866.813.107.473.107.983-.08 1.437-.18.411-.626.608-1.045.644-.482.035-1.036 0-1.393-.358-.384-.428-.384-1.053-.303-1.59.053-.446.41-.83.847-.928m4.464 0c.446-.097.928-.09 1.357.071.41.17.625.617.66 1.036.054.491 0 1.054-.357 1.429-.33.313-.812.357-1.25.348-.428-.017-.892-.179-1.115-.58a2.1 2.1 0 0 1-.161-1.402c.09-.438.429-.803.866-.902"/></svg>
